assets/uottawa.svg

<svg xmlns="http://www.w3.org/2000/svg" width="669" height="478" fill="none" viewBox="0 0 669 478"><path fill="#000" stroke="#000" d="M110.588 123.113c19.097 0 34.226 7.618 43.083 21.745l.147.235h20.765v10.67h20.551V312.46H26.042V155.763h20.55v-10.67h20.765l.148-.235c8.857-14.127 23.986-21.745 43.083-21.745Zm0 7.749c-11.882 0-28.292 3.438-37.385 19.889l-1.169 2.091h-2.337l-14.21.214-.493.006v10.663h-20.55v140.986H187.17V163.512h-20.552v-10.67h-17.477l-1.169-2.091c-9.094-16.45-25.503-19.889-37.385-19.889Z"/><path fill="#000" stroke="#000" d="M176.551 281.024v3.908H44.625v-3.908zM180.486 289.56v3.908H40.69v-3.908zM177.936 197.604l-2.715 7.384-64.467-22.669-.166-.059-.166.059-64.468 22.669-2.715-7.383 65.984-23.092.013-.005.014-.006 1.353-.566zM171.522 208.897v3.908h-3.371l1.412.919c.446.29.647.928.647 1.501 0 1.178-1.025 2.22-2.252 2.27a4 4 0 0 0-.627-.195 2.7 2.7 0 0 1-.555-.176l-.741-.362.021.825 1.312 49.469v.024h.001v.013l.499-.006v.28h4.091v7.108H48.998v-7.108h4.58l.01-.489 1.094-49.08.018-.821-.738.361c-.319.155-.643.162-1.092.162-1.266-.001-2.342-1.069-2.342-2.275 0-.219.08-.517.225-.826.145-.306.332-.573.498-.736l.88-.858h-2.915v-3.908zM66.589 213.51c.446.29.648.929.648 1.502 0 1.206-1.076 2.275-2.342 2.275-.45 0-.774-.008-1.093-.163l-.741-.362.023.825 1.311 49.506.013.487h15.186l.011-.489 1.094-49.507.017-.82-.737.36c-.319.155-.642.163-1.092.163-1.266 0-2.343-1.068-2.343-2.275 0-.219.08-.517.226-.826.145-.306.331-.573.498-.736l.879-.859h-12.97zm25.456.1c.556.723.73 1.595.38 2.471-.546 1.04-1.996 1.554-3.044 1.043l-.74-.362.022.825 1.311 49.506.013.487h15.187l.011-.489 1.093-49.293.018-.821-.737.361c-.319.155-.643.162-1.093.162-1.265 0-2.342-1.068-2.342-2.275 0-.219.079-.517.225-.826.145-.306.332-.573.499-.736l.879-.858h-12.3zm25.922-.1c.446.29.647.929.647 1.502 0 1.207-1.076 2.275-2.342 2.275-.45 0-.774-.008-1.093-.163l-.74-.362.021.825 1.312 49.506.013.487h15.185l.013-.487 1.311-49.506.022-.825-.74.362c-.319.155-.643.163-1.093.163-1.266 0-2.342-1.068-2.342-2.275 0-.219.079-.517.225-.826.145-.306.332-.573.499-.736l.879-.859h-13.19zm25.798 0c.446.29.648.929.648 1.502 0 1.207-1.077 2.275-2.343 2.275-.45 0-.773-.008-1.092-.163l-.741-.362.021.825 1.312 49.506.013.487h15.185l.013-.487 1.311-49.506.023-.825-.741.362c-.319.155-.643.163-1.093.163-1.266 0-2.342-1.068-2.342-2.275 0-.219.078-.517.225-.826.144-.306.332-.573.499-.736l.879-.859h-13.189zM274.028 260.279c-.212 6.606-.419 12.584-.419 16.541v17.285c0 2.297.055 4.147.215 5.625.16 1.473.429 2.619.881 3.488.464.89 1.114 1.474 1.986 1.823.849.34 1.882.447 3.103.447h.156v.95l-12.838.796c-.372-3.009-.373-6.014-.373-8.862l-.938-.24c-3.191 5.814-9.363 9.557-16.397 9.557h-.018l-.02.001c-5.244.409-10.067-2.66-11.956-7.361-.841-2.473-1.279-6.028-1.279-14.12v-15.151c0-2.356-.109-4.046-.336-5.266-.226-1.215-.581-2.029-1.126-2.56a2.94 2.94 0 0 0-1.366-.792c-.56-.152-1.272-.204-2.263-.204h-1.249v-1.164l13.618-.792c-.418 8.066-.626 10.263-.626 16.54v8.109c0 9.138.214 11.791 1.329 15.068v.001c.944 3.453 4.451 5.706 8.147 5.489 5.482-.006 10.225-3.577 12.69-9.263l.004-.009c.663-1.617 1.115-2.936 1.397-4.587.28-1.642.389-3.597.389-6.486v-14.084c0-2.449-.054-4.143-.253-5.337-.201-1.206-.564-1.989-1.251-2.525l-.006-.005-.006-.005-.182-.128c-.913-.619-2.06-1.03-3.423-.822h-1.22v-1.164zM328.111 239.763c10.147 0 17.869 3.363 23.665 10.277 5.381 6.727 7.971 15.142 7.755 23.78l-.001.019.001.019c.43 8.405-2.367 16.818-7.755 23.553-5.801 6.92-13.526 10.491-23.665 10.491h-.024c-9.235.419-17.829-3.56-23.635-10.482-10.347-14.112-10.35-33.06 0-47.389 5.577-6.696 13.516-10.268 23.659-10.268Zm17.231 11.185c-5.513-9.291-17.61-12.382-27.091-7.217-3.362 1.753-6.055 4.382-7.851 7.668l-.012.024c-6.843 14.22-6.843 30.598.002 44.608l.006.013.007.012c5.386 9.638 17.716 12.91 27.347 7.664v-.001c3.362-1.753 6.056-4.381 7.852-7.667l.006-.01.005-.011c6.845-14.01 6.844-30.388.001-44.608l-.014-.028zM381.14 248.048c-.183 3.774-.184 7.142-.184 12.767v.5h11.368v1.561h-11.368v30.729h-.219v.5c0 2.666.054 4.67.25 6.173.195 1.496.539 2.575 1.181 3.327 1.176 1.377 3.069 2.32 5.004 2.095 2.06-.006 3.931-.556 5.609-1.479l.511 1.376a20.16 20.16 0 0 1-8.995 2.092c-4.507 0-7.767-1.465-9.173-4.21l-.006-.01-.005-.01-.182-.335c-.862-1.69-1.064-3.654-1.064-10.087v-30.161h-5.904v-1.181c2.632-.299 4.699-1.365 6.289-3.4 1.621-2.073 2.716-5.112 3.484-9.251zM412.185 248.048c-.183 3.774-.184 7.142-.184 12.767v.5h11.368v1.561h-11.364l-.004.496-.219 30.729v.004c0 2.666.054 4.67.25 6.173.195 1.496.539 2.575 1.182 3.327 1.175 1.377 3.068 2.32 5.004 2.095 2.059-.006 3.929-.557 5.607-1.479l.513 1.376a20.2 20.2 0 0 1-8.995 2.092c-4.508 0-7.768-1.465-9.174-4.21l-.006-.01-.005-.01-.182-.335c-.862-1.69-1.064-3.654-1.064-10.087v-30.161h-5.903v-1.181c2.632-.299 4.698-1.365 6.289-3.4 1.62-2.073 2.715-5.112 3.483-9.251zM453.799 259.821h.022c5.887 0 9.794 1.197 12.086 3.642l.217.241c1.846 2.206 2.501 5.04 2.501 10.128 0 .205 0 .195-.219 9.378v13.019c-.219 2.844.232 5.464 1.12 8.067l.039.113.085.083c.768.75 1.958 1.16 5.029 1.204l-.098.765c-3.156.41-6.268.8-9.173.8-.673 0-1.157-.089-1.526-.276-.356-.18-.648-.472-.896-.968-.254-.508-.456-1.218-.62-2.209-.163-.986-.285-2.221-.394-3.763l-.084-1.195-.79.9c-1.278 1.455-2.777 2.711-4.511 3.98l-.016.012c-3.396 2.694-7.648 3.941-11.908 3.733l-.027-.001-.028.002c-3.358.205-6.517-.813-9.273-2.666-2.51-2.466-3.97-5.741-3.97-9.425 0-3.506 1.158-6.364 3.381-8.611 2.233-2.256 5.573-3.929 9.992-4.983 5.452-1.064 11.107-1.912 16.754-2.124l.481-.019v-6.219c.221-2.844-.227-5.907-1.352-8.543l-.011-.024-.012-.022-.138-.237c-1.47-2.404-4.242-3.647-7.95-3.647-3.13 0-5.615.708-7.378 2.228-1.769 1.526-2.734 3.801-2.959 6.769l-.002.019v.019c0 .957-.057 1.524-.192 1.919-.12.353-.312.593-.677.863-.995.577-1.958.754-2.907.569l-.048-.01h-.048c-1.619 0-2.649-.215-3.264-.593-.554-.34-.821-.845-.827-1.655.428-3.663 2.725-6.902 6.036-8.316l.017-.007.015-.007c4.077-2.094 8.8-3.142 13.523-2.933Zm7.636 21.194c-8.327.642-12.126 1.502-15.933 3.469-4.32 2.007-6.829 6.234-6.61 10.901 0 5.93 3.407 10.316 8.371 10.316 4.984 0 9.731-2.651 12.444-6.844l.004-.007.005-.007c1.605-2.686 2.257-6.648 2.257-12.847v-5.022zM547.331 260.888v1.159c-2.42.148-4.185.667-5.592 2.068-1.465 1.458-2.477 3.814-3.569 7.439l-11.255 35.281h-4.085l-11.692-34.868-.471-1.406-.476 1.404-11.91 35.084h-4.08l-11.48-37.843h-.001c-.761-2.548-1.446-4.279-2.625-5.37-1.122-1.04-2.619-1.438-4.786-1.575v-1.16h19.77v1.162c-2.056.121-3.586.389-4.625.937-.573.302-1.014.698-1.305 1.209-.289.508-.41 1.093-.41 1.741v.042l.007.042c.214 1.252.439 2.788.888 4.111v.001l8.526 28.808.45 1.52.504-1.502 12.348-36.789h3.212l11.912 36.784.495 1.528.46-1.539 8.086-27.094c.664-1.734 1.117-3.495 1.117-5.485 0-1.717-1.243-3.409-2.99-3.897-1.197-.386-2.558-.602-3.787-.648v-1.144zM571.42 259.821h.023c5.887 0 9.793 1.197 12.086 3.642l.217.241c1.845 2.206 2.501 5.04 2.501 10.128 0 .205 0 .195-.219 9.378v13.019c-.22 2.844.231 5.464 1.12 8.067l.039.113.085.083c.768.75 1.957 1.16 5.028 1.204l-.097.765c-3.142.41-6.059.8-9.173.8-.673 0-1.158-.089-1.527-.276-.355-.18-.647-.472-.895-.968-.254-.508-.456-1.218-.62-2.209-.164-.986-.286-2.221-.395-3.763l-.084-1.195-.79.9c-1.278 1.455-2.776 2.711-4.511 3.98l-.015.012c-3.397 2.694-7.648 3.941-11.908 3.733l-.028-.001-.027.002c-3.358.205-6.517-.813-9.273-2.666-2.511-2.466-3.97-5.741-3.97-9.425 0-3.512 1.107-6.369 3.301-8.613 2.204-2.254 5.543-3.928 10.075-4.982 5.45-1.064 11.105-1.911 16.751-2.123l.48-.019v-6.219c.222-2.844-.226-5.907-1.351-8.543l-.011-.024-.013-.022-.137-.237c-1.47-2.404-4.243-3.647-7.951-3.647-3.234 0-5.724.706-7.463 2.23-1.744 1.529-2.649 3.808-2.874 6.767l-.002.019v.019c0 .957-.056 1.524-.191 1.919-.12.353-.313.593-.678.863-.995.577-1.957.754-2.907.569l-.048-.01h-.048c-1.618 0-2.648-.215-3.263-.593-.554-.34-.822-.845-.827-1.655.427-3.663 2.724-6.902 6.036-8.316l.016-.007.016-.007c4.076-2.094 8.799-3.142 13.522-2.933Zm7.417 21.194c-8.312.641-12.111 1.499-15.912 3.459-4.332 2.004-6.849 6.237-6.631 10.911 0 5.93 3.408 10.316 8.372 10.316 5.206 0 9.733-2.655 12.444-6.844l.005-.007.004-.007c1.605-2.686 2.257-6.648 2.257-12.847v-5.022z"/></svg>

<svg width="669" height="478" viewBox="0 0 669 478" fill="none" xmlns="http://www.w3.org/2000/svg">
<path d="M110.588 123.113C129.685 123.113 144.814 130.731 153.671 144.858L153.818 145.093H174.583V155.763H195.134V312.46H26.042V155.763H46.5928V145.093H67.3574L67.5049 144.858C76.3622 130.731 91.4907 123.113 110.588 123.113ZM110.588 130.862C98.7059 130.862 82.2963 134.3 73.2031 150.751L72.0342 152.842H69.6973L55.4863 153.056L54.9941 153.062V163.725H34.4434V304.711H187.171V163.512H166.619V152.842H149.142L147.973 150.751C138.879 134.301 122.47 130.862 110.588 130.862Z" fill="black" stroke="black"/>
<path d="M176.551 281.024V284.932H44.625V281.024H176.551Z" fill="black" stroke="black"/>
<path d="M180.486 289.56V293.468H40.6899V289.56H180.486Z" fill="black" stroke="black"/>
<path d="M177.936 197.604L175.221 204.988L110.754 182.319L110.588 182.26L110.422 182.319L45.9541 204.988L43.2393 197.605L109.223 174.513L109.236 174.508L109.25 174.502L110.603 173.936L177.936 197.604Z" fill="black" stroke="black"/>
<path d="M171.522 208.897V212.805H168.151L169.563 213.724C170.009 214.014 170.21 214.652 170.21 215.225C170.21 216.403 169.185 217.445 167.958 217.495C167.729 217.399 167.51 217.344 167.331 217.3C167.106 217.246 166.939 217.203 166.776 217.124L166.035 216.762L166.056 217.587L167.368 267.056V267.08H167.369V267.093L167.868 267.087V267.367H171.959V274.475H48.9976V267.367H53.5776L53.5884 266.878L54.6821 217.798L54.6997 216.977L53.9624 217.338C53.6435 217.493 53.3194 217.5 52.8696 217.5C51.6041 217.499 50.5278 216.431 50.5278 215.225C50.5279 215.006 50.6072 214.708 50.7534 214.399C50.8982 214.093 51.0847 213.826 51.2515 213.663L52.1304 212.805H49.2163V208.897H171.522ZM66.5894 213.51C67.035 213.8 67.2368 214.439 67.2368 215.012C67.2368 216.218 66.1606 217.287 64.895 217.287C64.4452 217.287 64.1212 217.279 63.8022 217.124L63.061 216.762L63.0835 217.587L64.395 267.093L64.4077 267.58H79.5942L79.605 267.091L80.6987 217.584L80.7163 216.764L79.979 217.124C79.6602 217.279 79.3368 217.287 78.8872 217.287C77.6215 217.287 76.5445 216.219 76.5444 215.012C76.5444 214.793 76.6238 214.495 76.77 214.186C76.9147 213.88 77.1014 213.613 77.2681 213.45L78.147 212.591H65.1772L66.5894 213.51ZM92.0454 213.61C92.6011 214.333 92.7744 215.205 92.4243 216.081C91.8789 217.121 90.4293 217.635 89.3813 217.124L88.6401 216.762L88.6626 217.587L89.9741 267.093L89.9868 267.58H105.174L105.185 267.091L106.278 217.798L106.296 216.977L105.559 217.338C105.24 217.493 104.916 217.5 104.466 217.5C103.201 217.5 102.124 216.432 102.124 215.225C102.124 215.006 102.203 214.708 102.349 214.399C102.494 214.093 102.681 213.826 102.848 213.663L103.727 212.805H91.4272L92.0454 213.61ZM117.967 213.51C118.413 213.8 118.614 214.439 118.614 215.012C118.614 216.219 117.538 217.287 116.272 217.287C115.822 217.287 115.498 217.279 115.179 217.124L114.439 216.762L114.46 217.587L115.772 267.093L115.785 267.58H130.97L130.983 267.093L132.294 217.587L132.316 216.762L131.576 217.124C131.257 217.279 130.933 217.287 130.483 217.287C129.217 217.287 128.141 216.219 128.141 215.012C128.141 214.793 128.22 214.495 128.366 214.186C128.511 213.88 128.698 213.613 128.865 213.45L129.744 212.591H116.554L117.967 213.51ZM143.765 213.51C144.211 213.8 144.413 214.439 144.413 215.012C144.413 216.219 143.336 217.287 142.07 217.287C141.62 217.287 141.297 217.279 140.978 217.124L140.237 216.762L140.258 217.587L141.57 267.093L141.583 267.58H156.768L156.781 267.093L158.092 217.587L158.115 216.762L157.374 217.124C157.055 217.279 156.731 217.287 156.281 217.287C155.015 217.287 153.939 216.219 153.939 215.012C153.939 214.793 154.017 214.495 154.164 214.186C154.308 213.88 154.496 213.613 154.663 213.45L155.542 212.591H142.353L143.765 213.51Z" fill="black" stroke="black"/>
<path d="M274.028 260.279C273.816 266.885 273.609 272.863 273.609 276.82V294.105C273.609 296.402 273.664 298.252 273.824 299.73C273.984 301.203 274.253 302.349 274.705 303.218C275.169 304.108 275.819 304.692 276.691 305.041C277.54 305.381 278.573 305.488 279.794 305.488H279.95V306.438L267.112 307.234C266.74 304.225 266.739 301.22 266.739 298.372L265.801 298.132C262.61 303.946 256.438 307.689 249.404 307.689H249.386L249.366 307.69C244.122 308.099 239.299 305.03 237.41 300.329C236.569 297.856 236.131 294.301 236.131 286.209V271.058C236.131 268.702 236.022 267.012 235.795 265.792C235.569 264.577 235.214 263.763 234.669 263.232C234.29 262.861 233.889 262.599 233.303 262.44C232.743 262.288 232.031 262.236 231.04 262.236H229.791V261.072L243.409 260.28C242.991 268.346 242.783 270.543 242.783 276.82V284.929C242.783 294.067 242.997 296.72 244.112 299.997V299.998C245.056 303.451 248.563 305.704 252.259 305.487C257.741 305.481 262.484 301.91 264.949 296.224L264.953 296.215C265.616 294.598 266.068 293.279 266.35 291.628C266.63 289.986 266.739 288.031 266.739 285.142V271.058C266.739 268.609 266.685 266.915 266.486 265.721C266.285 264.515 265.922 263.732 265.235 263.196L265.229 263.191L265.223 263.186L265.041 263.058C264.128 262.439 262.981 262.028 261.618 262.236H260.398V261.072L274.028 260.279Z" fill="black" stroke="black"/>
<path d="M328.111 239.763C338.258 239.763 345.98 243.126 351.776 250.04C357.157 256.767 359.747 265.182 359.531 273.82L359.53 273.839L359.531 273.858C359.961 282.263 357.164 290.676 351.776 297.411C345.975 304.331 338.25 307.902 328.111 307.902H328.087C318.852 308.321 310.258 304.342 304.452 297.42C294.105 283.308 294.102 264.36 304.452 250.031C310.029 243.335 317.968 239.763 328.111 239.763ZM345.342 250.948C339.829 241.657 327.732 238.566 318.251 243.731C314.889 245.484 312.196 248.113 310.4 251.399L310.388 251.423C303.545 265.643 303.545 282.021 310.39 296.031L310.396 296.044L310.403 296.056C315.789 305.694 328.119 308.966 337.75 303.72L337.75 303.719C341.112 301.966 343.806 299.338 345.602 296.052L345.608 296.042L345.613 296.031C352.458 282.021 352.457 265.643 345.614 251.423L345.6 251.395L345.342 250.948Z" fill="black" stroke="black"/>
<path d="M381.14 248.048C380.957 251.822 380.956 255.19 380.956 260.815V261.315H392.324V262.876H380.956V293.605H380.737V294.105C380.737 296.771 380.791 298.775 380.987 300.278C381.182 301.774 381.526 302.853 382.168 303.605C383.344 304.982 385.237 305.925 387.172 305.7C389.232 305.694 391.103 305.144 392.781 304.221L393.292 305.597C390.613 306.929 387.554 307.689 384.297 307.689C379.79 307.689 376.53 306.224 375.124 303.479L375.118 303.469L375.113 303.459L374.931 303.124C374.069 301.434 373.867 299.47 373.867 293.037V262.876H367.963V261.695C370.595 261.396 372.662 260.33 374.252 258.295C375.873 256.222 376.968 253.183 377.736 249.044L381.14 248.048Z" fill="black" stroke="black"/>
<path d="M412.185 248.048C412.002 251.822 412.001 255.19 412.001 260.815V261.315H423.369V262.876H412.005L412.001 263.372L411.782 294.101V294.105C411.782 296.771 411.836 298.775 412.032 300.278C412.227 301.774 412.571 302.853 413.214 303.605C414.389 304.982 416.282 305.925 418.218 305.7C420.277 305.694 422.147 305.143 423.825 304.221L424.338 305.597C421.658 306.929 418.599 307.689 415.343 307.689C410.835 307.689 407.575 306.224 406.169 303.479L406.163 303.469L406.158 303.459L405.976 303.124C405.114 301.434 404.912 299.47 404.912 293.037V262.876H399.009V261.695C401.641 261.396 403.707 260.33 405.298 258.295C406.918 256.222 408.013 253.183 408.781 249.044L412.185 248.048Z" fill="black" stroke="black"/>
<path d="M453.799 259.821H453.821C459.708 259.821 463.615 261.018 465.907 263.463L466.124 263.704C467.97 265.91 468.625 268.744 468.625 273.832C468.625 274.037 468.625 274.027 468.406 283.21V296.229C468.187 299.073 468.638 301.693 469.526 304.296L469.565 304.409L469.65 304.492C470.418 305.242 471.608 305.652 474.679 305.696L474.581 306.461C471.425 306.871 468.313 307.261 465.408 307.261C464.735 307.261 464.251 307.172 463.882 306.985C463.526 306.805 463.234 306.513 462.986 306.017C462.732 305.509 462.53 304.799 462.366 303.808C462.203 302.822 462.081 301.587 461.972 300.045L461.888 298.85L461.098 299.75C459.82 301.205 458.321 302.461 456.587 303.73L456.571 303.742C453.175 306.436 448.923 307.683 444.663 307.475L444.636 307.474L444.608 307.476C441.25 307.681 438.091 306.663 435.335 304.81C432.825 302.344 431.365 299.069 431.365 295.385C431.365 291.879 432.523 289.021 434.746 286.774C436.979 284.518 440.319 282.845 444.738 281.791C450.19 280.727 455.845 279.879 461.492 279.667L461.973 279.648V273.429C462.194 270.585 461.746 267.522 460.621 264.886L460.61 264.862L460.598 264.84L460.46 264.603C458.99 262.199 456.218 260.956 452.51 260.956C449.38 260.956 446.895 261.664 445.132 263.184C443.363 264.71 442.398 266.985 442.173 269.953L442.171 269.972V269.991C442.171 270.948 442.114 271.515 441.979 271.91C441.859 272.263 441.667 272.503 441.302 272.773C440.307 273.35 439.344 273.527 438.395 273.342L438.347 273.332H438.299C436.68 273.332 435.65 273.117 435.035 272.739C434.481 272.399 434.214 271.894 434.208 271.084C434.636 267.421 436.933 264.182 440.244 262.768L440.261 262.761L440.276 262.754C444.353 260.66 449.076 259.612 453.799 259.821ZM461.435 281.015C453.108 281.657 449.309 282.517 445.502 284.484C441.182 286.491 438.673 290.718 438.892 295.385C438.892 301.315 442.299 305.701 447.263 305.701C452.247 305.701 456.994 303.05 459.707 298.857L459.711 298.85L459.716 298.843C461.321 296.157 461.973 292.195 461.973 285.996V280.974L461.435 281.015Z" fill="black" stroke="black"/>
<path d="M547.331 260.888V262.047C544.911 262.195 543.146 262.714 541.739 264.115C540.274 265.573 539.262 267.929 538.17 271.554L526.915 306.835H522.83L511.138 271.967L510.667 270.561L510.191 271.965L498.281 307.049H494.201L482.721 269.206H482.72C481.959 266.658 481.274 264.927 480.095 263.836C478.973 262.796 477.476 262.398 475.309 262.261V261.101H495.079V262.263C493.023 262.384 491.493 262.652 490.454 263.2C489.881 263.502 489.44 263.898 489.149 264.409C488.86 264.917 488.739 265.502 488.739 266.15V266.192L488.746 266.234C488.96 267.486 489.185 269.022 489.634 270.345V270.346L498.16 299.154L498.61 300.674L499.114 299.172L511.462 262.383H514.674L526.586 299.167L527.081 300.695L527.541 299.156L535.627 272.062C536.291 270.328 536.744 268.567 536.744 266.577C536.744 264.86 535.501 263.168 533.754 262.68C532.557 262.294 531.196 262.078 529.967 262.032V260.888H547.331Z" fill="black" stroke="black"/>
<path d="M571.42 259.821H571.443C577.33 259.821 581.236 261.018 583.529 263.463L583.746 263.704C585.591 265.91 586.247 268.744 586.247 273.832C586.247 274.037 586.247 274.027 586.028 283.21V296.229C585.808 299.073 586.259 301.693 587.148 304.296L587.187 304.409L587.272 304.492C588.04 305.242 589.229 305.652 592.3 305.696L592.203 306.461C589.061 306.871 586.144 307.261 583.03 307.261C582.357 307.261 581.872 307.172 581.503 306.985C581.148 306.805 580.856 306.513 580.608 306.017C580.354 305.509 580.152 304.799 579.988 303.808C579.824 302.822 579.702 301.587 579.593 300.045L579.509 298.85L578.719 299.75C577.441 301.205 575.943 302.461 574.208 303.73L574.193 303.742C570.796 306.436 566.545 307.683 562.285 307.475L562.257 307.474L562.23 307.476C558.872 307.681 555.713 306.663 552.957 304.81C550.446 302.344 548.987 299.069 548.987 295.385C548.987 291.873 550.094 289.016 552.288 286.772C554.492 284.518 557.831 282.844 562.363 281.79C567.813 280.726 573.468 279.879 579.114 279.667L579.594 279.648V273.429C579.816 270.585 579.368 267.522 578.243 264.886L578.232 264.862L578.219 264.84L578.082 264.603C576.612 262.199 573.839 260.956 570.131 260.956C566.897 260.956 564.407 261.662 562.668 263.186C560.924 264.715 560.019 266.994 559.794 269.953L559.792 269.972V269.991C559.792 270.948 559.736 271.515 559.601 271.91C559.481 272.263 559.288 272.503 558.923 272.773C557.928 273.35 556.966 273.527 556.016 273.342L555.968 273.332H555.92C554.302 273.332 553.272 273.117 552.657 272.739C552.103 272.399 551.835 271.894 551.83 271.084C552.257 267.421 554.554 264.182 557.866 262.768L557.882 262.761L557.898 262.754C561.974 260.66 566.697 259.612 571.42 259.821ZM578.837 281.015C570.525 281.656 566.726 282.514 562.925 284.474C558.593 286.478 556.076 290.711 556.294 295.385C556.294 301.315 559.702 305.701 564.666 305.701C569.872 305.701 574.399 303.046 577.11 298.857L577.115 298.85L577.119 298.843C578.724 296.157 579.376 292.195 579.376 285.996V280.974L578.837 281.015Z" fill="black" stroke="black"/>
</svg>
